X: 41436
T: Two Days To Go
R: reel
M: 4/4
K: Gmajor
G3B e~B3|dedB AGBA|GBdg ed (3Bcd|e2dG BAA2|
G3B e~B3|dedB AGED|EDAB AGGB|1 dGAB AGBA:|2 dGAB AGG2||
b2gb a~g3|eged e~B3|b2gb a~g3|egeg a2ga|
b2gb aged|egdB AGED|EDAB AGGB|dGAB AGG2:|

